X:1
T:Tarantella in A minor
T:Tarantella in A minor
T:A. Pieczonka
C:A. Pieczonka
%%score { ( 1 3 ) | ( 2 4 ) }
L:1/8
Q:1/4=240
M:6/8
K:C
V:1 bass nm="Piano" snm="Pno."
V:3 bass 
V:2 bass 
V:4 bass 
V:1
"^\n"!pp! (F,A,B, CB,A, | E,A,B, CB,A, | D,A,B, CB,A, | E,A,B, CB,A,) | F,A,B, CED | [A,C]6 | %6
 [^G,B,]6 |[K:treble] z!<(!!<(! (AB cBA!<)!!<)! | e2) (e A2)!<(!!<(! (A | %9
 f2)!<)!!<)! (f A2)!<(!!<(! (A | e6)!<)!!<)! | z (Bc dcB | c2) (c A2) (A | B2) (B F2) (F | %14
 B2) (B E3) | z!<(!!<(! (AB cBA | e2) (e e2) (e | e2) (e e2) (e | a6)!<)!!<)! |!f!!f! z ab c'ba | %20
 gg'f' e'd'c' | bag fed | c3 z z2 | [Ee]3!8va(! (f'=g'f' | e'e''e' d'e'd' | c'c''c' bc'b | %26
 aa'a)!8va)! (fgf | ee'e f=gf | ee'e ded | cc'c BcB | AaA) (ABA | G3)!8va(! (a'b'a' | %32
 g'g''g' f'g'f' | e'e''e' d'e'd' | c'c''c') (bc'b | aa'a bc'b | aa'a!<(! bc'b | aa'a bc'b | %38
 aa'a bc'b | e3)!8va)! (FGF | E3)!<)! z z2 | z3!pp! (FGF | E3)!p! (FGF | E3) z z2 | z2 z!f! (FGF | %45
 EeE)!ff! (FGF |!fff! EeE) FGF | (EeE DED | CcC B,CB,) | z!<(! (AB cBA!<)! | e2) (e A2)!<(! (A | %51
 f2)!<)! (f A2)!<(! (A | e6)!<)! | z (Bc dcB | c2) (c A2) (A | B2) (B F2) (F | B2) (B E3) | %57
 z!<(! (AB cBA | e2) (e e2) (e | e2) (e e2) (e | a6)!<)! |!f! z (ab c'ba | gg')(^f' e'd'c' | %63
 ba^g fed | c3) (EFE | A,3) z z2 ||[K:A]!pp! z2 z (e3 | ^d3 e3 | c3)!<(! (c3 | d3!<)! ^A3 | %70
 B3!<(! ^c3 | [Gd]3)!<)!!>(! ([df]3 | [ce]3 [Bd]3!>)! | c3 d3 | ^d3) (e3 | ^d3 e3 | c3)!<(! (c3 | %77
 e3!<)! ^A3 | B3) ^c3 | (d3 ^d3 | e3 G3 | A3) z z2 | z2 z (=c3 ||[K:C] B3 A3 | G3)!<(! ((^G3 | %85
 A3!<)! =G3 | F3)) (F3 | E3 ^D3 | E3 F3 | E3) z z2 |!<(! z2 z (c3!<)! | B3 A3 | G3)!<(! (^G3 | %93
 A3!<)! =G3 | F3) (F3 | E3 ^D3 | E3)!ff! (F3 | E3 c3 | ^G3)!pp! (e3 ||[K:A] ^d3 e3 | c3)!<(! ((c3 | %101
 d3!<)! ^A3 | B3)!<(! (^c3 | [Gd]3))!<)!!>(! ([df]3 | [ce]3 [Bd]3!>)! | c3) (d3 | ^d3 e3 | %107
 ^d3) (e3 | c3 a3 | g3) (f3 | e3 ^d3 | =d3) (^c3 | d3) z z2 | (d3 c3 | d3) z z2 | (d3 c3 | d3 c3) | %117
!<(! (d3 ^d3!<)! | e3 G3) ||[K:C] z!<(!!<(!!<(! (AB cBA!<)!!<)!!<)! | e2) (e A2)!<(!!<(!!<(! (A | %121
 f2)!<)!!<)!!<)! (f A2)!<(!!<(!!<(! (A | e6)!<)!!<)!!<)! | z (Bc dcB | c2) (c A2) (A | %125
 B2) (B F2) (F | B2) (B E3) | z!<(!!<(!!<(! (AB cBA | e2) (e e2) (e | e2) (e e2) (e | %130
 a6)!<)!!<)!!<)! |!f!!f!!f! z ab c'ba | gg'f' e'd'c' | bag fed | c3 z z2 | %135
 [Ee]3!8va(!!8va(! ((f'=g'f' | e'e''e' d'e'd' | c'c''c' bc'b | aa'a))!8va)!!8va)! ((fgf | %139
 ee'e f=gf | ee'e ded | cc'c BcB | AaA)) ((ABA | G3))!8va(!!8va(! ((a'b'a' | g'g''g' f'g'f' | %145
 e'e''e' d'e'd' | c'c''c')) ((bc'b | aa'a bc'b | aa'a bc'b | aa'a bc'b | aa'a bc'b | %151
 e3))!8va)!!8va)! ((FGF | E3)) z z2 | z3 ((FGF | E3)) ((FGF | E3)) z z2 | z2 z (FGF | EeE) (FGF | %158
 EeE) FGF | (EeE DED | CcC B,CB,) | z!<(!!<(! (AB cBA!<)!!<)! | e2) (e A2)!<(!!<(! (A | %163
 f2)!<)!!<)! (f A2)!<(!!<(! (A | e6)!<)!!<)! | z (Bc dcB | c2) (c A2) (A | B2) (B F2) (F | %168
 B2) (B E3) | z!<(!!<(! (AB cBA | e2) (e e2) (e | e2) (e e2) (e | a6)!<)!!<)! |!f!!f! z (ab c'ba | %174
 gg')(^f' e'd'c' | ba^g fed | c3)!pp!!<(! (ACA, | ACA, ACA, | ACA, ACA, | ACA,!<)!!ff! A!>(!CA, | %180
 ACA, ACA,)!>)! | (f!p!ag fed | ced cBA | ^GBA G^FE | A3)!mf! (a!<(!cA | acA acA | acA acA!<)! | %187
!ff! a!>(!cA acA | acA acA)!>)! |!p! (fag fed | ced cBA | ^GBA G^FE | ced cBA | fag fed) | %194
!f! (f'a'g' f'e'd' | f'a'g' f'e'd' | f'a'g' f'e'd' | f'a'g' f'e'd' | %198
!fff!!8va(! e''2) (d'' c''b'a' | ^g'f'e' d'c'b!8va)! | ae'd'!ff! c'ba | ^gfe dcB | A)(ed cBA | %203
 ^GFE DCB, | A,ED CB,A,) | z6 |!ff! [E^GBe]6 |!fff! [Acea]6 |] %208
V:2
 (A,,6 | G,,6 | F,,6 | E,,6 | D,,6 | E,,6- | E,,6) | [A,,A,]3 [CE]3- | [CE]3 [CE]3 | A,3 [DF]3 | %10
 A,3 [CE]3 | ^G,3 [B,E]3 | A,3 [CE]3 | D,3 [A,B,]3 | E,3 [^G,B,]3 | A,3 [CE]3 | ^G,3 [B,E]3 | %17
 =G,3 [B,E]3 | ^F,3 [A,D]3 | =F,3 [A,D]3 | G,3 [CE]3- | [CE]3 [G,B,F]3 | [CE]3 z z2 | %23
 [^G,,^G,]3 [E,G,D]3- | [E,G,D]3 [E,^G,D]3 | [A,,A,]3 [E,A,C]3- | [E,A,C]3 [E,A,C]3 | %27
 [B,,B,]3 [E,^G,D]3- | [E,G,D]3 [E,^G,D]3 | [A,,A,]3 [E,A,C]3- | [E,A,C]3 [E,A,C]3 | %31
 [B,,B,]3 [G,B,F]3- | [G,B,F]3 [G,B,F]3 | [C,C]3 [G,CE]3- | [G,CE]3 [G,CE]3 | [F,,F,]3 [F,A,C]3- | %36
 [F,A,C]3 [F,A,^C]3- | [F,A,C]3 [F,A,D]3- | [F,A,D]3 [F,A,^D]3 | [E,^G,E]3 (([F,,F,]3 | %40
 [E,,E,]3)) z z2 | z2 z (([F,,F,]3 | [E,,E,]3)) (([F,,F,]3 | [E,,E,]3)) z z2 | z z2 ([F,,F,]3 | %45
 [E,,E,]3) ([F,,F,]3 | [E,,E,]3) [F,,F,]3 | ([E,,E,]3 [D,,D,]3 | [C,,C,]3 [B,,,B,,]3 | %49
 [A,,,A,,]3) [CE]3- | [CE]3 [CE]3 | A,3 [DF]3 | A,3 [CE]3 | ^G,3 [B,E]3 | A,3 [CE]3 | D,3 [A,B,]3 | %56
 E,3 [^G,B,]3 | A,3 [CE]3 | ^G,3 [B,E]3 | =G,3 [B,E]3 | ^F,3 [A,D]3 | =F,3 [A,D]3 | G,3 [CE]3- | %63
 [CE]3 [G,B,F]3 | [CE]3 [E,,E,]3 | [A,,,A,,]3 z z2 ||[K:A] z2 z (C3 | ^B,3 C3 | A,3) (^A,3 | B,6 | %70
 E,3 ^A,3 | B,3) ([E,G,]3 | [F,A,]3 [G,B,]3 | A,3 B,3 | ^B,3) (C3 | ^B,3 C3 | A,3) (^A,3 | B,6 | %78
 E,3) (^A,3 | B,6 | E,6 | A,3 E,A,E, | A,,6) ||[K:C] (B,,6 | C,6) | (^C,6 | D,3) (^D,3 | E,3 =F,3 | %88
 E,3 ^D,3 | E,3) z z2 | (A,,6 | B,,6 | C,6) | (^C,6 | D,3) (^D,3 | E,3 =F,3 | E,3) ([^D,,^D,]3 | %97
 [E,,E,]3 [F,,=F,]3 | [E,,E,]3) (^C3 ||[K:A] ^B,3 C3 | A,3) (^A,3 | B,6 | E,3) (^A,3 | %103
 B,3) ([E,G,]3 | [F,A,]3 [G,B,]3 | A,3) (B,3 | ^B,3 C3 | ^B,3) (C3 | A,3 F3 | E3) (D3 | C3 ^B,3 | %111
 =B,3) (_B,3 | B,3) E,3 | (B,3 ^A,3 | B,3) E,3 | (B,3 ^A,3 | B,3 ^A,3) | (B,6 | E,6) || %119
[K:C] [A,,A,]3 [CE]3- | [CE]3 [CE]3 | A,3 [DF]3 | A,3 [CE]3 | ^G,3 [B,E]3 | A,3 [CE]3 | %125
 D,3 [A,B,]3 | E,3 [^G,B,]3 | A,3 [CE]3 | ^G,3 [B,E]3 | =G,3 [B,E]3 | ^F,3 [A,D]3 | =F,3 [A,D]3 | %132
 G,3 [CE]3- | [CE]3 [G,B,F]3 | [CE]3 z z2 | [^G,,^G,]3 [E,G,D]3- | [E,G,D]3 [E,^G,D]3 | %137
 [A,,A,]3 [E,A,C]3- | [E,A,C]3 [E,A,C]3 | [B,,B,]3 [E,^G,D]3- | [E,G,D]3 [E,^G,D]3 | %141
 [A,,A,]3 [E,A,C]3- | [E,A,C]3 [E,A,C]3 | [B,,B,]3 [G,B,F]3- | [G,B,F]3 [G,B,F]3 | %145
 [C,C]3 [G,CE]3- | [G,CE]3 [G,CE]3 | [F,,F,]3 [F,A,C]3- | [F,A,C]3 [F,A,^C]3- | %149
 [F,A,C]3 [F,A,D]3- | [F,A,D]3 [F,A,^D]3 | [E,^G,E]3 (((([F,,F,]3 | [E,,E,]3)))) z z2 | %153
 z2 z (((([F,,F,]3 | [E,,E,]3)))) (((([F,,F,]3 | [E,,E,]3)))) z z2 | z z2 ([F,,F,]3 | %157
 [E,,E,]3) ([F,,F,]3 | [E,,E,]3) [F,,F,]3 | ([E,,E,]3 [D,,D,]3 | [C,,C,]3 [B,,,B,,]3 | %161
 [A,,,A,,]3) [CE]3- | [CE]3 [CE]3 | A,3 [DF]3 | A,3 [CE]3 | ^G,3 [B,E]3 | A,3 [CE]3 | D,3 [A,B,]3 | %168
 E,3 [^G,B,]3 | A,3 [CE]3 | ^G,3 [B,E]3 | =G,3 [B,E]3 | ^F,3 [A,D]3 | =F,3 [A,D]3 | G,3 [CE]3- | %175
 [CE]3 [G,B,F]3 | [CE]3 ([A,,,A,,]3 | [B,,,B,,]3 [C,,C,]3 | [D,,D,]3 [E,,E,]3 | [F,,F,]3 [E,,E,]3 | %180
 [D,,D,]3 [C,,C,]3) | (D,3 [F,B,]3 | E,3 [A,C]3 | E,3 [B,D]3 | [A,C]3) ([A,,A,]3 | %185
 [B,,B,]3 [C,C]3 | [D,D]3 [E,E]3 | [F,F]3 [E,E]3 | [D,D]3 [C,C]3) | (D,3 [F,B,]3 | E,3 [A,C]3 | %191
 E,3 [B,D]3 | E,3 [A,C]3 | D,3 [F,D]3) | ([D,F,A,]6 | [D,F,_B,]6 | [D,F,A,]6 | [D,F,=B,]6) | %198
 ([E,A,C]6 | [E,B,E]6 | [A,CE]6 | [E,B,E]6) | [A,CE]6 | [E,,B,,E,]6 | [A,,C,E,]6 | %205
 ^G,F,E, D,C,B,, | [E,,E,]6 | [A,,,A,,]6 |] %208
V:3
 x6 | x6 | x6 | x6 | x6 | x6 | x6 |[K:treble] x6 | x6 | x6 | x6 | x6 | x6 | x6 | x6 | x6 | x6 | %17
 x6 | x6 | x6 | x6 | x6 | x6 | x3!8va(! x3 | x6 | x6 | x3!8va)! x3 | x6 | x6 | x6 | x6 | %31
 x3!8va(! x3 | x6 | x6 | x6 | x6 | x6 | x6 | x6 | x3!8va)! x3 | x6 | x6 | x6 | x6 | x6 | x6 | x6 | %47
 x6 | x6 | x6 | x6 | x6 | x6 | x6 | x6 | x6 | x6 | x6 | x6 | x6 | x6 | x6 | x6 | x6 | x6 | x6 || %66
[K:A] z4 (AE | z AE z AE | z AE) z (=GE | z ^GE z GE | z GE z =GE) | x6 | x6 | z (AE z AE | %74
 z AE) z (AE | z AE z AE | z AE) z (=GE | z ^GE z GE | z GE) z =GE | z (^GE z GE | z GE z ED | %81
 z EC) z z2 | x3 z (E=C ||[K:C] z FD z FD | z EC) z ((EC | z EA, z EA, | z DA,)) z (DA, | %87
 z CA, z CA, | z CA, z CA, | z B,^G, E,G,B,) | (ECE z EC | z FD z FD | z EC) z (EC | z EA, z EA, | %94
 z DA,) z (DA, | z CA, z CA, | z C)A, z (CA, | z CA, z ^DB, | z EB,) z (AE ||[K:A] z AE z AE | %100
 z AE) z ((=GE | z ^GE z GE | z GE) z (=GE)) | x6 | x6 | z (AE) z (AE | z AE z AE | z AE) z (AE | %108
 z AE z =dA | z dA) z (dA | z AE z AE | z GE) z (=GE | z ^GE) z z2 | z (GE z =GE | z ^GE) z z2 | %115
 z (GE z =GE | z ^GE z =GE) | z (^GE z GE | z GE z E=D) ||[K:C] x6 | x6 | x6 | x6 | x6 | x6 | x6 | %126
 x6 | x6 | x6 | x6 | x6 | x6 | x6 | x6 | x6 | x3!8va(!!8va(! x3 | x6 | x6 | x3!8va)!!8va)! x3 | %139
 x6 | x6 | x6 | x6 | x3!8va(!!8va(! x3 | x6 | x6 | x6 | x6 | x6 | x6 | x6 | x3!8va)!!8va)! x3 | %152
 x6 | x6 | x6 | x6 | x6 | x6 | x6 | x6 | x6 | x6 | x6 | x6 | x6 | x6 | x6 | x6 | x6 | x6 | x6 | %171
 x6 | x6 | x6 | x6 | x6 | x6 | x6 | x6 | x6 | x6 | x6 | x6 | x6 | x6 | x6 | x6 | x6 | x6 | x6 | %190
 x6 | x6 | x6 | x6 | x6 | x6 | x6 | x6 |!8va(! x6 | x6!8va)! | x6 | x6 | x6 | x6 | x6 | x6 | x6 | %207
 x6 |] %208
V:4
 x6 | x6 | x6 | x6 | x6 | x6 | x6 | x6 | x6 | x6 | x6 | x6 | x6 | x6 | x6 | x6 | x6 | x6 | x6 | %19
 x6 | x6 | x6 | x6 | x6 | x6 | x6 | x6 | x6 | x6 | x6 | x6 | x6 | x6 | x6 | x6 | x6 | x6 | x6 | %38
 x6 | x6 | x6 | x6 | x6 | x6 | x6 | x6 | x6 | x6 | x6 | x6 | x6 | x6 | x6 | x6 | x6 | x6 | x6 | %57
 x6 | x6 | x6 | x6 | x6 | x6 | x6 | x6 | x6 ||[K:A] x6 | x6 | x6 | x6 | x6 | x6 | x6 | x6 | x6 | %75
 x6 | x6 | x6 | x6 | x6 | x6 | x6 | x6 ||[K:C] x6 | x6 | x6 | x6 | x6 | x6 | x6 | x6 | x6 | x6 | %93
 x6 | x6 | x6 | x6 | x6 | x6 ||[K:A] x6 | x6 | x6 | x6 | x6 | x6 | x6 | x6 | x6 | x6 | x6 | x6 | %111
 x6 | x6 | x6 | x6 | x6 | x6 | x6 | x6 ||[K:C] x6 | x6 | x6 | x6 | x6 | x6 | x6 | x6 | x6 | x6 | %129
 x6 | x6 | x6 | x6 | x6 | x6 | x6 | x6 | x6 | x6 | x6 | x6 | x6 | x6 | x6 | x6 | x6 | x6 | x6 | %148
 x6 | x6 | x6 | x6 | x6 | x6 | x6 | x6 | x6 | x6 | x6 | x6 | x6 | x6 | x6 | x6 | x6 | x6 | x6 | %167
 x6 | x6 | x6 | x6 | x6 | x6 | x6 | x6 | x6 | x6 | x6 | x6 | x6 | x6 | x6 | x6 | x6 | x6 | x6 | %186
 x6 | x6 | x6 | x6 | x6 | x6 | x6 | x6 | x6 | x6 | x6 | x6 | x6 | x6 | x6 | x6 | x6 | x6 | x6 | %205
 [E,,,E,,]6 | x6 | x6 |] %208

